svgs/sharp-light/hockey-stick-puck.svg

<svg xmlns="http://www.w3.org/2000/svg" viewBox="0 0 640 512"><!--! Font Awesome Pro 6.6.0 by @fontawesome - https://fontawesome.com License - https://fontawesome.com/license (Commercial License) Copyright 2024 Fonticons, Inc. --><path d="M320.9 320L481.8 8.7l28.4 14.7-248 480-4.5 8.7-9.7 0L16 512 0 512l0-16L0 336l0-16 16 0 304.9 0zm-16.5 32L128 352l0 128 110.3 0 66.1-128zM32 352l0 128 64 0 0-128-64 0zm384 80l0 48 192 0 0-48-192 0zm-32-32l32 0 192 0 32 0 0 32 0 48 0 32-32 0-192 0-32 0 0-32 0-48 0-32z"/></svg>

<svg xmlns="http://www.w3.org/2000/svg" viewBox="0 0 640 512"><!--! Font Awesome Pro 6.5.2 by @fontawesome - https://fontawesome.com License - https://fontawesome.com/license (Commercial License) Copyright 2024 Fonticons, Inc. --><path d="M320.9 320L481.8 8.7l28.4 14.7-248 480-4.5 8.7H248 16 0V496 336 320H16 320.9zm-16.5 32H128V480H238.3l66.1-128zM32 352V480H96V352H32zm384 80v48H608V432H416zm-32-32h32H608h32v32 48 32H608 416 384V480 432 400z"/></svg>
